icons/settings-5-fill.svg

<svg xmlns="http://www.w3.org/2000/svg" width="24" height="24" fill="none"><g clip-path="url(#a)"><g><path fill="#121212" d="M2.1316 13.63C1.95223 12.5507 1.95223 11.4493 2.1316 10.37C3.2336 10.396 4.2236 9.86801 4.6086 8.93901C4.9936 8.00901 4.6666 6.93501 3.8686 6.17601C4.50501 5.2853 5.28416 4.50581 6.1746 3.86901C6.9346 4.66701 8.0086 4.99401 8.9386 4.60901C9.8686 4.22401 10.3956 3.23301 10.3686 2.13201C11.4485 1.95242 12.5507 1.95242 13.6306 2.13201C13.6036 3.23401 14.1316 4.22401 15.0606 4.60901C15.9906 4.99401 17.0646 4.66701 17.8236 3.86901C18.7143 4.50542 19.4938 5.28458 20.1306 6.17501C19.3326 6.93501 19.0056 8.00901 19.3906 8.93901C19.7756 9.86901 20.7666 10.396 21.8676 10.369C22.0472 11.4489 22.0472 12.5511 21.8676 13.631C20.7656 13.604 19.7756 14.132 19.3906 15.061C19.0056 15.991 19.3326 17.065 20.1306 17.824C19.4942 18.7147 18.715 19.4942 17.8246 20.131C17.0646 19.333 15.9906 19.006 15.0606 19.391C14.1306 19.776 13.6036 20.767 13.6306 21.868C12.5507 22.0476 11.4485 22.0476 10.3686 21.868C10.3956 20.766 9.8676 19.776 8.9386 19.391C8.0086 19.006 6.9346 19.333 6.1756 20.131C5.28489 19.4946 4.5054 18.7154 3.8686 17.825C4.6666 17.065 4.9936 15.991 4.6086 15.061C4.2236 14.131 3.2326 13.604 2.1316 13.631V13.63ZM11.9996 15C12.7952 15 13.5583 14.6839 14.1209 14.1213C14.6835 13.5587 14.9996 12.7957 14.9996 12C14.9996 11.2044 14.6835 10.4413 14.1209 9.87869C13.5583 9.31608 12.7952 9.00001 11.9996 9.00001C11.204 9.00001 10.4409 9.31608 9.87828 9.87869C9.31567 10.4413 8.9996 11.2044 8.9996 12C8.9996 12.7957 9.31567 13.5587 9.87828 14.1213C10.4409 14.6839 11.204 15 11.9996 15Z"/></g></g><defs><clipPath id="a"><rect width="24" height="24" fill="white"/></clipPath></defs></svg>

<svg width="24" height="24" fill="none" xmlns="http://www.w3.org/2000/svg"><g clip-path="url(#a)"><path d="M2.132 13.63a9.942 9.942 0 0 1 0-3.26c1.102.026 2.092-.502 2.477-1.431.385-.93.058-2.004-.74-2.763a9.942 9.942 0 0 1 2.306-2.307c.76.798 1.834 1.125 2.764.74.93-.385 1.457-1.376 1.43-2.477a9.942 9.942 0 0 1 3.262 0c-.027 1.102.5 2.092 1.43 2.477.93.385 2.004.058 2.763-.74a9.942 9.942 0 0 1 2.307 2.306c-.798.76-1.125 1.834-.74 2.764.385.93 1.376 1.457 2.477 1.43a9.92 9.92 0 0 1 0 3.262c-1.102-.027-2.092.501-2.477 1.43-.385.93-.058 2.004.74 2.763a9.943 9.943 0 0 1-2.306 2.307c-.76-.798-1.834-1.125-2.764-.74-.93.385-1.457 1.376-1.43 2.477a9.92 9.92 0 0 1-3.262 0c.027-1.102-.501-2.092-1.43-2.477-.93-.385-2.004-.058-2.763.74a9.942 9.942 0 0 1-2.307-2.306c.798-.76 1.125-1.834.74-2.764-.385-.93-1.376-1.457-2.477-1.43v-.001ZM12 15a3 3 0 1 0 0-6 3 3 0 0 0 0 6Z" /></g><defs><clipPath id="a"><path fill="#fff" d="M0 0h24v24H0z"/></clipPath></defs></svg>
